!!! OTL: Berkowitz48
!!! Chapter: 1
!!! Section: I
!!! Page: 15
!!! Mode: 
!!! Encoder: DJB
**kern
*staff1
*I"Piano
=1-
*clefC3
*k[b-e-]
*B-:
*M3/4
4B-/
4c\
4d\
=2
4.d\
8e-\
4f\
=3
4.g\
8f\
4e-\
=4
2d\
4c\
=5
2.B-/
=6
4c\
4d\
4e-\
=7
2f\
4B-/
=8
4c\
4d\
4e-\
=9
2.f\
=10
4B-/
4c\
4d\
=11
4.d\
8e-\
4f\
=12
!!linebreak:original
4.g\
8f\
4e-\
=13
2d\
4c\
=14
2.B-/
==
*-
